resources/haticons/SVG/library1.svg

<!-- Generated by IcoMoon.io -->
<svg version="1.1" xmlns="http://www.w3.org/2000/svg" width="24" height="24" viewBox="0 0 24 24">
<title>library1</title>
<path d="M22.588 21.882v-1.412h-1.412v-8.471h1.412v-1.412h-4.235v1.412h1.412v8.471h-4.235v-8.471h1.412v-1.412h-4.235v1.412h1.412v8.471h-4.235v-8.471h1.412v-1.412h-4.235v1.412h1.412v8.471h-4.235v-8.471h1.412v-1.412h-4.235v1.412h1.412v8.471h-1.412v1.412h-1.412v1.412h24v-1.412h-1.412zM11.294 0.706h1.412l11.294 7.059v1.412h-24v-1.412l11.294-7.059z"></path>
</svg>

<svg xmlns="http://www.w3.org/2000/svg" width="24" height="24"><path d="M22.588 21.882V20.47h-1.412v-8.471h1.412v-1.412h-4.235v1.412h1.412v8.471H15.53v-8.471h1.412v-1.412h-4.235v1.412h1.412v8.471H9.884v-8.471h1.412v-1.412H7.061v1.412h1.412v8.471H4.238v-8.471H5.65v-1.412H1.415v1.412h1.412v8.471H1.415v1.412H.003v1.412h24v-1.412h-1.412zM11.294.706h1.412L24 7.765v1.412H0V7.765L11.294.706z"/></svg>
